dist/assets/img/icons/telegram.svg

<svg width="20" height="17" viewBox="0 0 20 17" fill="none" xmlns="http://www.w3.org/2000/svg">
<path d="M1.3749 7.31846C6.74359 4.91938 10.3236 3.33777 12.1148 2.57361C17.2292 0.391776 18.2919 0.0127698 18.9846 0.00012133C19.1369 -0.00249777 19.4776 0.0362266 19.6982 0.219862C19.8845 0.37492 19.9358 0.584381 19.9603 0.731393C19.9848 0.878405 20.0154 1.2133 19.9911 1.47498C19.714 4.46174 18.5147 11.7098 17.9046 15.055C17.6465 16.4705 17.1382 16.9451 16.6461 16.9916C15.5766 17.0925 14.7645 16.2667 13.7287 15.5702C12.1078 14.4805 11.1921 13.8021 9.61879 12.7387C7.80053 11.5097 8.97923 10.8343 10.0154 9.73042C10.2866 9.44153 14.9987 5.04555 15.0899 4.64677C15.1013 4.59689 15.1119 4.41098 15.0042 4.31282C14.8965 4.21465 14.7376 4.24822 14.6229 4.27492C14.4604 4.31276 11.871 6.06814 6.85486 9.54107C6.11988 10.0587 5.45416 10.3109 4.8577 10.2977C4.20015 10.2831 2.93528 9.91637 1.99498 9.60288C0.84166 9.21836 -0.0749729 9.01506 0.00484519 8.36203C0.0464194 8.0219 0.503103 7.67404 1.3749 7.31846Z" fill="white"/>
</svg>

<svg width="20" height="17" fill="none" xmlns="http://www.w3.org/2000/svg"><path d="M1.375 7.318c5.369-2.399 8.949-3.98 10.74-4.744C17.229.392 18.292.013 18.985 0c.152-.002.493.036.713.22.186.155.238.364.262.511.025.147.055.482.031.744-.277 2.987-1.476 10.235-2.086 13.58-.259 1.416-.767 1.89-1.259 1.937-1.07.1-1.882-.725-2.917-1.422-1.621-1.09-2.537-1.768-4.11-2.831-1.818-1.23-.64-1.905.396-3.009.272-.288 4.984-4.684 5.075-5.083.011-.05.022-.236-.086-.334-.107-.098-.266-.065-.381-.038-.163.038-2.752 1.793-7.768 5.266-.735.518-1.4.77-1.997.757-.658-.015-1.923-.382-2.863-.695-1.153-.385-2.07-.588-1.99-1.241.041-.34.498-.688 1.37-1.044z" fill="#fff"/></svg>
